Papirus/24x24/panel/google-music-manager-panel.svg

<?xml version="1.0" encoding="UTF-8" standalone="no"?>
<svg xmlns:dc="http://purl.org/dc/elements/1.1/" xmlns:cc="http://creativecommons.org/ns#" xmlns:rdf="http://www.w3.org/1999/02/22-rdf-syntax-ns#" xmlns:svg="http://www.w3.org/2000/svg" xmlns="http://www.w3.org/2000/svg" version="1.0" width="24" height="24" id="svg2817">
    <metadata id="metadata57">
        <rdf:RDF>
            <cc:Work rdf:about="">
                <dc:format>
                    image/svg+xml
                </dc:format>
                <dc:type rdf:resource="http://purl.org/dc/dcmitype/StillImage"/>
                <dc:title/>
            </cc:Work>
        </rdf:RDF>
    </metadata>
    <path style="opacity:1;fill:#ffffff;fill-opacity:1;stroke:none" d="M 12,5 C 8.134007,5 5,8.1339999 5,12 l 0,1.361328 A 4,4 0 0 0 4,16 4,4 0 0 0 8.0000001,20 l 0.9999996,0 0,-8 -0.9999996,0 A 4,4 0 0 0 7,12.132813 L 7,12 C 7,9.23 9.2299997,6.9999999 12,6.9999999 14.770003,6.9999999 17,9.23 17,12 l 0,0.130859 A 4,4 0 0 0 16,12 l -1,0 0,8 1,0 a 4,4 0 0 0 4,-4 4,4 0 0 0 -1,-2.638672 L 19,12 C 19,8.1339999 15.86599,5 12,5 Z" id="path4352"/>
</svg>

<?xml version="1.0" encoding="UTF-8" standalone="no"?>
<svg id="svg2817" xmlns:rdf="http://www.w3.org/1999/02/22-rdf-syntax-ns#" xmlns="http://www.w3.org/2000/svg" height="24" width="24" version="1.0" xmlns:cc="http://creativecommons.org/ns#" xmlns:dc="http://purl.org/dc/elements/1.1/">
 <metadata id="metadata57">
  <rdf:RDF>
   <cc:Work rdf:about="">
    <dc:format>image/svg+xml</dc:format>
    <dc:type rdf:resource="http://purl.org/dc/dcmitype/StillImage"/>
    <dc:title/>
   </cc:Work>
  </rdf:RDF>
 </metadata>
 <path id="path4352" d="m12 5c-3.866 0-7 3.134-7 7v1.3613a4 4 0 0 0 -1 2.639 4 4 0 0 0 4 4h1v-8h-1a4 4 0 0 0 -1 0.133v-0.133c0-2.77 2.23-5 5-5s5 2.23 5 5v0.13086a4 4 0 0 0 -1 -0.131h-1v8h1a4 4 0 0 0 4 -4 4 4 0 0 0 -1 -2.6387v-1.361c0-3.866-3.134-7-7-7z" fill="#fff"/>
</svg>
